docs/img/logo-algolia-notext.svg

<?xml version="1.0" encoding="UTF-8" standalone="no"?>
<svg width="21px" height="24px" viewBox="0 0 21 24" version="1.1" xmlns="http://www.w3.org/2000/svg" xmlns:xlink="http://www.w3.org/1999/xlink" xmlns:sketch="http://www.bohemiancoding.com/sketch/ns">
    <!-- Generator: Sketch 3.4 (15575) - http://www.bohemiancoding.com/sketch -->
    <title>logo-algolia-notext</title>
    <desc>Created with Sketch.</desc>
    <defs>
        <path d="M420.249222,611.073515 L418.856969,616.002003 L423.3409,613.547006 C422.689697,612.354182 421.578505,611.452244 420.249222,611.073515 Z M409.246256,616.10382 C409.246256,621.383504 413.530356,625.664529 418.816747,625.664529 C424.103138,625.664529 428.387237,621.383504 428.387237,616.10382 C428.387237,610.824136 424.103138,606.543111 418.816747,606.543111 C413.530356,606.543111 409.246256,610.824136 409.246256,616.10382 Z M418.816747,609.274742 C422.585982,609.274742 425.652812,612.338437 425.652812,616.10382 C425.652812,619.869203 422.585982,622.932898 418.816747,622.932898 C415.047512,622.932898 411.980682,619.869203 411.980682,616.10382 C411.980682,612.338437 415.047512,609.274742 418.816747,609.274742 Z M422.12,605.360574 C422.122576,605.323512 422.130737,605.288174 422.130737,605.25025 L422.130737,604.388343 C422.130307,603.436798 421.361533,602.66496 420.412806,602.664529 L417.405998,602.664529 C416.4577,602.66496 415.688497,603.436367 415.688497,604.388343 L415.688497,605.235167 C416.645813,604.966252 417.65295,604.819297 418.694875,604.819297 C419.889267,604.819297 421.039851,605.01064 422.12,605.360574 Z M411.623873,607.047757 C410.953021,606.374608 409.864712,606.375039 409.19386,607.047757 L408.890215,607.352441 C408.219363,608.02516 408.219793,609.117196 408.890215,609.790346 L409.213616,610.114423 C409.902077,609.00601 410.778651,608.027746 411.797384,607.222294 L411.623873,607.047757 Z" id="path-1"></path>
    </defs>
    <g id="Page-1" stroke="none" stroke-width="1" fill="none" fill-rule="evenodd" sketch:type="MSPage">
        <g id="instansearch-website" sketch:type="MSArtboardGroup" transform="translate(-408.000000, -602.000000)">
            <g id="logo-algolia-notext">
                <use fill="#FFFFFF" fill-rule="evenodd" sketch:type="MSShapeGroup" xlink:href="#path-1"></use>
                <use fill="none" xlink:href="#path-1"></use>
            </g>
        </g>
    </g>
</svg>

<svg width="21" height="24" viewBox="0 0 21 24" xmlns="http://www.w3.org/2000/svg" xmlns:xlink="http://www.w3.org/1999/xlink"><title>logo-algolia-notext</title><desc>Created with Sketch.</desc><defs><path d="M420.25 611.074l-1.393 4.928 4.484-2.455c-.65-1.193-1.76-2.095-3.09-2.473zm-11.004 5.03c0 5.28 4.284 9.56 9.57 9.56 5.287 0 9.57-4.28 9.57-9.56s-4.283-9.56-9.57-9.56c-5.286 0-9.57 4.28-9.57 9.56zm9.57-6.83c3.77 0 6.837 3.064 6.837 6.83 0 3.765-3.067 6.83-6.836 6.83-3.77 0-6.836-3.065-6.836-6.83 0-3.766 3.068-6.83 6.837-6.83zm3.304-3.913c.003-.036.01-.072.01-.11v-.862c0-.95-.768-1.723-1.717-1.723h-3.007c-.948 0-1.718.77-1.718 1.723v.847c.958-.27 1.965-.416 3.007-.416 1.194 0 2.345.19 3.425.54zm-10.496 1.688c-.67-.673-1.76-.673-2.43 0l-.304.304c-.67.673-.67 1.765 0 2.438l.324.324c.688-1.108 1.565-2.086 2.583-2.892l-.173-.174z" id="a"/></defs><g fill="none" fill-rule="evenodd"><g><g transform="translate(-408 -602)"><use fill="#fff" xlink:href="#a"/><use xlink:href="#a"/></g></g></g></svg>
